client/public/images/icon_triumph.svg

<svg fill="none" height="20" viewBox="0 0 22 20" width="20" xmlns="http://www.w3.org/2000/svg"><g stroke="#fff"><path d="m2.875 3.75v13.75c0 .6904.55964 1.25 1.25 1.25h2.5c.69036 0 1.25-.5596 1.25-1.25v-5.625c0-1.7259 1.39911-3.125 3.125-3.125 1.7259 0 3.125 1.3991 3.125 3.125v5.625c0 .6904.5596 1.25 1.25 1.25h2.5c.6904 0 1.25-.5596 1.25-1.25v-13.75"/><path d="m1.625 6.25h18.75"/><path d="m1.625 12.5h7.5"/><path d="m12.875 12.5h7.5"/><path d="m4.75 8.75h1.25"/><path d="m16 8.75h1.25"/><path d="m5.375 15v1.25"/><path d="m16.625 15v1.25"/><rect height="2.5" rx=".5" width="18.75" x="1.625" y="1.25"/></g></svg>

<svg width="20" height="20" viewBox="0 0 22 20" fill="none" xmlns="http://www.w3.org/2000/svg">
<path d="M2.875 3.75V17.5C2.875 18.1904 3.43464 18.75 4.125 18.75H6.625C7.31536 18.75 7.875 18.1904 7.875 17.5V11.875C7.875 10.1491 9.27411 8.75 11 8.75C12.7259 8.75 14.125 10.1491 14.125 11.875V17.5C14.125 18.1904 14.6846 18.75 15.375 18.75H17.875C18.5654 18.75 19.125 18.1904 19.125 17.5V3.75" stroke="white" strokeWidth="1.5" strokeLinecap="round" strokeLinejoin="round"/>
<path d="M1.625 6.25H20.375" stroke="white" strokeWidth="1.5" strokeLinecap="round" strokeLinejoin="round"/>
<path d="M1.625 12.5H9.125" stroke="white" strokeWidth="1.5" strokeLinecap="round" strokeLinejoin="round"/>
<path d="M12.875 12.5H20.375" stroke="white" strokeWidth="1.5" strokeLinecap="round" strokeLinejoin="round"/>
<path d="M4.75 8.75H6" stroke="white" strokeWidth="1.5" strokeLinecap="round" strokeLinejoin="round"/>
<path d="M16 8.75H17.25" stroke="white" strokeWidth="1.5" strokeLinecap="round" strokeLinejoin="round"/>
<path d="M5.375 15V16.25" stroke="white" strokeWidth="1.5" strokeLinecap="round" strokeLinejoin="round"/>
<path d="M16.625 15V16.25" stroke="white" strokeWidth="1.5" strokeLinecap="round" strokeLinejoin="round"/>
<rect x="1.625" y="1.25" width="18.75" height="2.5" rx="0.5" stroke="white" strokeWidth="1.5" strokeLinecap="round" strokeLinejoin="round"/>
</svg>
